Catalina-dark/status/16/notification-new-symbolic.svg

<?xml version="1.0" encoding="UTF-8" standalone="no"?>
<svg
   xmlns:dc="http://purl.org/dc/elements/1.1/"
   xmlns:cc="http://creativecommons.org/ns#"
   xmlns:rdf="http://www.w3.org/1999/02/22-rdf-syntax-ns#"
   xmlns:svg="http://www.w3.org/2000/svg"
   xmlns="http://www.w3.org/2000/svg"
   xmlns:xlink="http://www.w3.org/1999/xlink"
   xmlns:sodipodi="http://sodipodi.sourceforge.net/DTD/sodipodi-0.dtd"
   xmlns:inkscape="http://www.inkscape.org/namespaces/inkscape"
   height="16"
   width="16"
   version="1.1"
   id="svg6"
   sodipodi:docname="notification-new-symbolic.svg"
   inkscape:version="0.92.3 (2405546, 2018-03-11)">
  <metadata
     id="metadata12">
    <rdf:RDF>
      <cc:Work
         rdf:about="">
        <dc:format>image/svg+xml</dc:format>
        <dc:type
           rdf:resource="http://purl.org/dc/dcmitype/StillImage" />
        <dc:title></dc:title>
      </cc:Work>
    </rdf:RDF>
  </metadata>
  <defs
     id="defs10">
    <filter
       id="filter7554"
       style="color-interpolation-filters:sRGB">
      <feBlend
         id="feBlend7556"
         in2="BackgroundImage"
         mode="darken" />
    </filter>
    <filter
       style="color-interpolation-filters:sRGB"
       id="filter7554-5">
      <feBlend
         mode="darken"
         in2="BackgroundImage"
         id="feBlend7556-4" />
    </filter>
    <filter
       id="filter7554-6"
       style="color-interpolation-filters:sRGB">
      <feBlend
         mode="darken"
         in2="BackgroundImage"
         id="feBlend7556-6" />
    </filter>
    <linearGradient
       x1="8.9254236"
       y1="5.9997859"
       x2="8.9254236"
       y2="19"
       id="linearGradient2868"
       xlink:href="#linearGradient3678"
       gradientUnits="userSpaceOnUse"
       gradientTransform="translate(-1,-2)" />
    <linearGradient
       id="linearGradient3678">
      <stop
         id="stop3680"
         style="stop-color:#ffffff;stop-opacity:1"
         offset="0" />
      <stop
         id="stop3682"
         style="stop-color:#e6e6e6;stop-opacity:1"
         offset="1" />
    </linearGradient>
    <linearGradient
       x1="9"
       y1="3"
       x2="9"
       y2="21"
       id="linearGradient2393"
       xlink:href="#linearGradient3678"
       gradientUnits="userSpaceOnUse"
       gradientTransform="translate(-2,-1)" />
    <linearGradient
       gradientTransform="translate(-1.0001235,-5)"
       gradientUnits="userSpaceOnUse"
       xlink:href="#linearGradient3587-6-5-3"
       id="linearGradient2398"
       y2="21"
       x2="14"
       y1="3"
       x1="14" />
    <linearGradient
       id="linearGradient3587-6-5-3">
      <stop
         offset="0"
         style="stop-color:#000000;stop-opacity:1"
         id="stop3589-9-2-0" />
      <stop
         offset="1"
         style="stop-color:#363636;stop-opacity:1"
         id="stop3591-7-4-7" />
    </linearGradient>
    <linearGradient
       gradientTransform="translate(-52.096803,-11.363826)"
       gradientUnits="userSpaceOnUse"
       xlink:href="#linearGradient3587-6-5-3"
       id="linearGradient2395"
       y2="27.363825"
       x2="66.09668"
       y1="9.3638258"
       x1="66.09668" />
    <linearGradient
       gradientUnits="userSpaceOnUse"
       xlink:href="#linearGradient3587-6-5-3"
       id="linearGradient7390"
       y2="13.496136"
       x2="4.9554448"
       y1="2.6841583"
       x1="4.9554448" />
    <linearGradient
       gradientUnits="userSpaceOnUse"
       xlink:href="#linearGradient3587-6-5-3"
       id="linearGradient7392"
       y2="11.649005"
       x2="7.9109159"
       y1="4.5762329"
       x1="7.9109159" />
    <linearGradient
       gradientUnits="userSpaceOnUse"
       xlink:href="#linearGradient3587-6-5-3"
       id="linearGradient7394"
       y2="13.317288"
       x2="10.186814"
       y1="2.7742527"
       x1="10.186814" />
    <linearGradient
       gradientUnits="userSpaceOnUse"
       xlink:href="#linearGradient3587-6-5-3"
       id="linearGradient7396"
       y2="15.183488"
       x2="13.917011"
       y1="0.88217813"
       x1="13.917011" />
    <linearGradient
       id="linearGradient5263">
      <stop
         offset="0"
         style="stop-color:#a0d5ff;stop-opacity:1"
         id="stop5265" />
      <stop
         offset="1"
         style="stop-color:#a0d5ff;stop-opacity:1"
         id="stop5267" />
    </linearGradient>
    <filter
       style="color-interpolation-filters:sRGB"
       id="filter7554-7">
      <feBlend
         mode="darken"
         in2="BackgroundImage"
         id="feBlend7556-0" />
    </filter>
    <filter
       style="color-interpolation-filters:sRGB"
       id="filter7554-35">
      <feBlend
         mode="darken"
         in2="BackgroundImage"
         id="feBlend7556-35" />
    </filter>
    <filter
       id="filter7554-5-9"
       style="color-interpolation-filters:sRGB">
      <feBlend
         id="feBlend7556-4-5"
         in2="BackgroundImage"
         mode="darken" />
    </filter>
    <filter
       style="color-interpolation-filters:sRGB"
       id="filter7554-6-3">
      <feBlend
         id="feBlend7556-6-2"
         in2="BackgroundImage"
         mode="darken" />
    </filter>
    <filter
       id="filter7554-2"
       style="color-interpolation-filters:sRGB">
      <feBlend
         id="feBlend7556-9"
         in2="BackgroundImage"
         mode="darken" />
    </filter>
    <filter
       id="filter7554-29"
       style="color-interpolation-filters:sRGB">
      <feBlend
         id="feBlend7556-3"
         in2="BackgroundImage"
         mode="darken" />
    </filter>
    <filter
       id="filter7554-0"
       style="color-interpolation-filters:sRGB">
      <feBlend
         id="feBlend7556-5"
         in2="BackgroundImage"
         mode="darken" />
    </filter>
    <filter
       id="filter7554-3"
       style="color-interpolation-filters:sRGB">
      <feBlend
         id="feBlend7556-48"
         in2="BackgroundImage"
         mode="darken" />
    </filter>
    <filter
       style="color-interpolation-filters:sRGB"
       id="filter7554-5-3">
      <feBlend
         mode="darken"
         in2="BackgroundImage"
         id="feBlend7556-4-4" />
    </filter>
    <filter
       id="filter7554-6-8"
       style="color-interpolation-filters:sRGB">
      <feBlend
         mode="darken"
         in2="BackgroundImage"
         id="feBlend7556-6-4" />
    </filter>
    <filter
       style="color-interpolation-filters:sRGB"
       id="filter7554-7-7">
      <feBlend
         mode="darken"
         in2="BackgroundImage"
         id="feBlend7556-0-2" />
    </filter>
    <filter
       style="color-interpolation-filters:sRGB"
       id="filter7554-61">
      <feBlend
         mode="darken"
         in2="BackgroundImage"
         id="feBlend7556-98" />
    </filter>
    <filter
       id="filter7554-5-8"
       style="color-interpolation-filters:sRGB">
      <feBlend
         id="feBlend7556-4-6"
         in2="BackgroundImage"
         mode="darken" />
    </filter>
    <filter
       style="color-interpolation-filters:sRGB"
       id="filter7554-6-84">
      <feBlend
         id="feBlend7556-6-1"
         in2="BackgroundImage"
         mode="darken" />
    </filter>
    <filter
       id="filter7554-7-71"
       style="color-interpolation-filters:sRGB">
      <feBlend
         id="feBlend7556-0-3"
         in2="BackgroundImage"
         mode="darken" />
    </filter>
    <filter
       id="filter7554-35-2"
       style="color-interpolation-filters:sRGB">
      <feBlend
         id="feBlend7556-35-1"
         in2="BackgroundImage"
         mode="darken" />
    </filter>
    <filter
       style="color-interpolation-filters:sRGB"
       id="filter7554-5-9-1">
      <feBlend
         mode="darken"
         in2="BackgroundImage"
         id="feBlend7556-4-5-9" />
    </filter>
    <filter
       id="filter7554-6-3-8"
       style="color-interpolation-filters:sRGB">
      <feBlend
         mode="darken"
         in2="BackgroundImage"
         id="feBlend7556-6-2-4" />
    </filter>
    <filter
       style="color-interpolation-filters:sRGB"
       id="filter7554-2-7">
      <feBlend
         mode="darken"
         in2="BackgroundImage"
         id="feBlend7556-9-4" />
    </filter>
    <filter
       style="color-interpolation-filters:sRGB"
       id="filter7554-29-9">
      <feBlend
         mode="darken"
         in2="BackgroundImage"
         id="feBlend7556-3-2" />
    </filter>
    <filter
       style="color-interpolation-filters:sRGB"
       id="filter7554-0-9">
      <feBlend
         mode="darken"
         in2="BackgroundImage"
         id="feBlend7556-5-0" />
    </filter>
    <filter
       style="color-interpolation-filters:sRGB"
       id="filter7554-3-6">
      <feBlend
         mode="darken"
         in2="BackgroundImage"
         id="feBlend7556-48-5" />
    </filter>
    <filter
       id="filter7554-5-3-1"
       style="color-interpolation-filters:sRGB">
      <feBlend
         id="feBlend7556-4-4-5"
         in2="BackgroundImage"
         mode="darken" />
    </filter>
    <filter
       style="color-interpolation-filters:sRGB"
       id="filter7554-6-8-6">
      <feBlend
         id="feBlend7556-6-4-2"
         in2="BackgroundImage"
         mode="darken" />
    </filter>
    <filter
       id="filter7554-7-7-1"
       style="color-interpolation-filters:sRGB">
      <feBlend
         id="feBlend7556-0-2-4"
         in2="BackgroundImage"
         mode="darken" />
    </filter>
  </defs>
  <sodipodi:namedview
     pagecolor="#ffffff"
     bordercolor="#666666"
     borderopacity="1"
     objecttolerance="10"
     gridtolerance="10"
     guidetolerance="10"
     inkscape:pageopacity="0"
     inkscape:pageshadow="2"
     inkscape:window-width="1920"
     inkscape:window-height="1024"
     id="namedview8"
     showgrid="true"
     inkscape:zoom="29.5"
     inkscape:cx="-3.4115019"
     inkscape:cy="7.1227566"
     inkscape:window-x="0"
     inkscape:window-y="30"
     inkscape:window-maximized="1"
     inkscape:current-layer="svg6">
    <inkscape:grid
       type="xygrid"
       id="grid3717"
       spacingy="0.5"
       spacingx="0.5" />
  </sodipodi:namedview>
  <g
     transform="matrix(0.66845889,0.38593492,-0.38593492,0.66845889,-271.68642,27.686785)"
     id="g4"
     style="color:#bebebe;fill:#1a1a1a">
    <path
       style="overflow:visible;isolation:auto;mix-blend-mode:normal;fill:#1d1d1d;stroke-width:0.77186984;marker:none;stroke:none;stroke-opacity:1;fill-opacity:1"
       d="M 10.056641 3.3769531 A 0.77186984 0.77186984 0 0 0 9.515625 3.7519531 L 9.5117188 3.7597656 C 8.1565709 3.3837937 6.6713072 4.052371 5.9667969 5.2695312 C 5.9667969 5.2695312 4.0371933 8.6115893 2.6875 8.3867188 C 2.6729453 8.3872284 2.6609122 8.3982616 2.6445312 8.4003906 A 0.5603775 0.5603775 0 0 0 2.46875 8.4550781 C 2.4462975 8.4661797 2.4248474 8.4703928 2.4042969 8.484375 A 0.56963994 0.56963994 45 0 0 2.2167969 8.6757812 C 2.0566339 8.9531917 2.1522771 9.3066339 2.4296875 9.4667969 L 9.4472656 13.517578 C 9.7253445 13.678127 10.078118 13.584051 10.238281 13.306641 A 0.56963994 0.56963994 45 0 0 10.310547 13.050781 C 10.312766 13.025324 10.305631 13.003125 10.304688 12.978516 A 0.55960563 0.55960563 0 0 0 10.263672 12.798828 C 10.257608 12.784632 10.261411 12.769105 10.253906 12.755859 C 9.384316 11.699426 11.314453 8.3554688 11.314453 8.3554688 C 11.645104 7.7813093 11.775477 7.1187099 11.724609 6.4746094 C 10.68558 6.2349076 9.9003906 5.303177 9.9003906 4.1953125 C 9.9003906 3.9071631 9.9598955 3.632855 10.056641 3.3769531 z M 4.2597656 11.414062 A 1.5437397 1.5437397 0 0 0 4.9746094 13.162109 A 1.5437397 1.5437397 0 0 0 6.8476562 12.908203 L 4.2597656 11.414062 z "
       transform="matrix(1.1219837,-0.64777761,0.64777761,1.1219837,286.89286,-207.0565)"
       id="path2" />
  </g>
  <circle
     style="opacity:1;fill:#1d1d1d;fill-opacity:1;stroke:none;stroke-width:1.3;stroke-linecap:square;stroke-linejoin:miter;stroke-miterlimit:4;stroke-dasharray:none;stroke-opacity:1"
     id="path985"
     cx="12.245763"
     cy="4.1949153"
     r="1.6949153" />
</svg>

<svg width="16" height="16" version="1.1" xmlns="http://www.w3.org/2000/svg">
<g transform="matrix(.66846 .38593 -.38593 .66846 -271.69 27.687)" color="#bebebe" fill="#1a1a1a">
<path transform="matrix(1.122 -.64778 .64778 1.122 286.89 -207.06)" d="m10.057 3.377a0.77187 0.77187 0 0 0-0.54102 0.375l-0.0039062 0.0078125c-1.3551-0.37597-2.8404 0.29261-3.5449 1.5098 0 0-1.9296 3.3421-3.2793 3.1172-0.014555 5.096e-4 -0.026588 0.011543-0.042969 0.013672a0.56038 0.56038 0 0 0-0.17578 0.054688c-0.022452 0.011102-0.043903 0.015315-0.064453 0.029297a0.56964 0.56964 45 0 0-0.1875 0.19141c-0.16016 0.27741-0.06452 0.63085 0.21289 0.79102l7.0176 4.0508c0.27808 0.16055 0.63085 0.066473 0.79102-0.21094a0.56964 0.56964 45 0 0 0.072266-0.25586c0.002219-0.025457-0.004916-0.047656-0.005859-0.072265a0.55961 0.55961 0 0 0-0.041016-0.17969c-0.006064-0.014196-0.002261-0.029723-0.009766-0.042969-0.86959-1.0564 1.0605-4.4004 1.0605-4.4004 0.33065-0.57416 0.46102-1.2368 0.41016-1.8809-1.039-0.2397-1.8242-1.1714-1.8242-2.2793 0-0.28815 0.059505-0.56246 0.15625-0.81836zm-5.7969 8.0371a1.5437 1.5437 0 0 0 0.71484 1.748 1.5437 1.5437 0 0 0 1.873-0.25391l-2.5879-1.4941z" fill="#1d1d1d" style="isolation:auto;mix-blend-mode:normal"/>
</g>
<circle cx="12.246" cy="4.1949" r="1.6949" fill="#1d1d1d"/>
</svg>
